X:1
T:Someone To Watch Over Me
C:George Gerschwin
L:1/4
M:C
I:linebreak $
K:D treble
"D6" z D/E/"D7" F/A/B/d/ |"G6" (3e e d"Go" c2 |"Bm" (3d d c"Fo" B2 |"F#m" (3c c B"F7" A2 |$
"Em" z B"F#o" A"G6" G ||1"G#ø" d2"Gm" D E |"F#m" F2"F7" z2 |"Em" z2"Eb7" z2 :|2$
"G#ø" d2"G" D E |"D6" D2"D#" z2 ||"D6" z E"D7" F A |$"G" c d c d |"G6" e e z c |
"G#ø" e d"Gm" z c |"F#m" e d"Bm" z B |$"G#ø" d c"C#7" z B |"F#+" d c"F#7" z ^A |
"B7" F2"E7" z2 |"Em" E2"Eb7""_D.C. al 3rd end." z2 ||3$"G#ø" d2"G" D E |"D6" D4 | z4 |]

